X: 120
T: Missa Puer natus est nobis / Sanctus
N: Derived from Rue1025d-Missa_Puer_natus_est_nobis-Sanctus.krn
C: Pierre de la Rue
%%abc-version 2.0
%%abcx-abcm2ps-target-version 5.9.1 (29 Sep 2008)
%%abc-creator hum2abc beta
%%abcx-conversion-date 2019/02/17 08:01:14
%%abc-edited-by Jesse Rodin
%%abc-edited-by Chris Gage 11-16-2012
%%abcx-initial-encoding-date 2013/08/01/
%%humdrum-veritas 1801611619
%%humdrum-veritas-data 3009944663
%%linebreak <none>
%%barnumbers 0
L: 1/4
M: 3/1
Q: 1/2=120
%%staves [1 2 3 4]
V: 1 clef=treble
V: 2 clef=treble-8
V: 3 clef=treble-8
V: 4 clef=bass
K: F
[V:1] G8d4 | 
[V:2] G8G4 | 
[V:3] z12 | 
[V:4] G,8B,4 | 
[V:1] d6cBA2B2 | 
[V:2] d8d4 | 
[V:3] z12 | 
[V:4] B,6A,G,F,2G,2 | 
[V:1] c3BA2G2c2B2 | 
[V:2] e8e4 | 
[V:3] z12 | 
[V:4] C,4C3B,A,2G,2 | 
[V:1] G2B4A2c3B | 
[V:2] d8c4- | 
[V:3] z12 | 
[V:4] B,3A,G,2F,2A,3G, | 
[V:1] A2G2F2d4c2 | 
[V:2] c4z2f4e2 | 
[V:3] z12 | 
[V:4] F,2E,2D,4z4 | 
[V:1] _e3dc2B2A2c2- | 
[V:2] g3fe2d2c4- | 
[V:3] z12 | 
[V:4] z4z4z2A,2- | 
[V:1] c2B2d3cB2A2 | 
[V:2] c2d2d8 | 
[V:3] z12 | 
[V:4] A,2G,2B,3A,G,2F,2 | 
[V:1] G4F2B3AA2 | 
[V:2] z4z2d4c2 | 
[V:3] z12 | 
[V:4] E,4D,4z4 | 
[V:1] c3BA2G4^F2 | 
[V:2] _e3dc2B2A4 | 
[V:3] z12 | 
[V:4] C,4F,2G,2D,4 | 
[V:1] G12 | 
[V:2] G8z4 | 
[V:3] G12- | 
[V:4] D4D2B,3CD2 | 
[V:1] z4z4G4 | 
[V:2] d4d2B3Ac2 | 
[V:3] G12 | 
[V:4] G,2B,3A,G,F,E,4 | 
[V:1] F6E2D4 | 
[V:2] F2A3Gc4=B2 | 
[V:3] d8d4 | 
[V:4] D,6E,2F,2G,2 | 
[V:1] C8z2G2- | 
[V:2] c2g4fea2g2 | 
[V:3] e12- | 
[V:4] C,12- | 
[V:1] G2FEA2G2C2G2 | 
[V:2] c8G4 | 
[V:3] e12 | 
[V:4] C,12 | 
[V:1] F2A3GFEF4 | 
[V:2] z12 | 
[V:3] d12 | 
[V:4] D,2F,3E,D,C,B,,3A,, | 
[V:1] E8G4 | 
[V:2] g8e4 | 
[V:3] c12 | 
[V:4] C,8C,4 | 
[V:1] A8c4 | 
[V:2] f6ede2f2 | 
[V:3] c12 | 
[V:4] F,8A,4 | 
[V:1] B2d4cBc4 | 
[V:2] g2a3gg4^f2 | 
[V:3] z12 | 
[V:4] G,2F,2G,4A,4 | 
[V:1] B8z4 | 
[V:2] g12 | 
[V:3] d12- | 
[V:4] G,12 | 
[V:1] d6cBA2F2 | 
[V:2] f12 | 
[V:3] d12 | 
[V:4] D,8D,4 | 
[V:1] c8z4 | 
[V:2] e8c4 | 
[V:3] c8e4 | 
[V:4] A,6G,F,E,2C,2 | 
[V:1] B6AGF2D2 | 
[V:2] d2B2G3AB4 | 
[V:3] d4d8 | 
[V:4] G,8z4 | 
[V:1] A6GFE4 | 
[V:2] A8z4 | 
[V:3] f3ec2d4^c2 | 
[V:4] F,6E,D,A,4 | 
[V:1] z2D2F3GA2B2 | 
[V:2] A4B2A3cB2 | 
[V:3] d8z2d2 | 
[V:4] D,4z2D,2F,2G,2 | 
[V:1] c2G2A2B2c4 | 
[V:2] A2cBAGg4^f2 | 
[V:3] c2e3dd4c2 | 
[V:4] A,3B,CB,A,G,A,4 | 
[V:1] B6AGF4 | 
[V:2] g2G2B3cA4 | 
[V:3] d8z2d2 | 
[V:4] G,8D,4 | 
[V:1] G8z2G2 | 
[V:2] G2B3AGFG4 | 
[V:3] c2e3dd4^c2 | 
[V:4] E,2G,3F,E,D,E,4 | 
[V:1] F2A3GG4^F2 | 
[V:2] A2D2A2B2A4 | 
[V:3] d12- | 
[V:4] D,2F,3E,G,2D,4 | 
[V:1] G12 ||  
[V:2] G12 ||  
[V:3] d12 ||  
[V:4] G,12 ||  
[V:1]  [K:F] [K:clef=treble][M:3/1]z12 | 
[V:2]  [K:F] [K:clef=treble-8][M:3/1]G8d4 | 
[V:3]  [K:F] [K:clef=treble-8][M:3/1]z12 | 
[V:4]  [K:F] [K:clef=bass][M:3/1]G,4G,2B,4A,G, | 
[V:1] z12 | 
[V:2] d4e8- | 
[V:3] z12 | 
[V:4] F,2G,3C,C,4C2- | 
[V:1] z12 | 
[V:2] e8c4 | 
[V:3] z12 | 
[V:4] C2B,A,G,2C3F,F,2 | 
[V:1] A12 | 
[V:2] c2d4cBA2d2- | 
[V:3] z12 | 
[V:4] z12 | 
[V:1] B12- | 
[V:2] dGG4g4fe | 
[V:3] z12 | 
[V:4] z12 | 
[V:1] B4G4A3B | 
[V:2] d2g3cc4f2 | 
[V:3] z12 | 
[V:4] z4C,4F,3G, | 
[V:1] c2d4cBA2d2- | 
[V:2] e2d2f8 | 
[V:3] z12 | 
[V:4] A,2B,4A,G,F,2D,2 | 
[V:1] dGG4c4BA | 
[V:2] d4e8 | 
[V:3] z12 | 
[V:4] G,3C,C,8 | 
[V:1] G2c3FF2A2B2- | 
[V:2] e4d2ABc2d2- | 
[V:3] z12 | 
[V:4] C,4D,4C,2B,,2- | 
[V:1] B2AGF2A3GG2- | 
[V:2] d2cBA2d3GG2 | 
[V:3] z12 | 
[V:4] B,,C,D,E,F,2D,2F,2G,2 | 
[V:1] G2^F2G4z2G2- | 
[V:2] A4G8 | 
[V:3] z12 | 
[V:4] D,4z2G,3A,B,2 | 
[V:1] GAB2c2d2_e2d2- | 
[V:2] z4g8 | 
[V:3] z12 | 
[V:4] C2D2_E2B,2C2B,2- | 
[V:1] d2cBA4z2A2- | 
[V:2] g4f8- | 
[V:3] z12 | 
[V:4] B,2A,G,D8 | 
[V:1] A2GFA2B2c3B | 
[V:2] f8e3d | 
[V:3] z12 | 
[V:4] D,8A,4- | 
[V:1] cdc3defe2d2- | 
[V:2] efe3fgagfed | 
[V:3] z12 | 
[V:4] A,4z4z4 | 
[V:1] d^cc2d8 | 
[V:2] e4d8 | 
[V:3] z12 | 
[V:4] z2A,2B,2G,2B,3C | 
[V:1] z4z4z4 | 
[V:2] z2e2f2d2f3g | 
[V:3] z12 | 
[V:4] A,4D,8 | 
[V:1] z4z4z4 | 
[V:2] e4d4z2d2 | 
[V:3] z12 | 
[V:4] z2A,2B,2G,2B,3C | 
[V:1] z2A2B2G2B3c | 
[V:2] e2f2g2e3dg2- | 
[V:3] z12 | 
[V:4] A,4G,2C,2G,4 | 
[V:1] A4G2d4c2 | 
[V:2] g2^f2g4f2e2 | 
[V:3] z12 | 
[V:4] D,4z4z4 | 
[V:1] B2A3G/F/E2DEFG | 
[V:2] d3c/B/A2GABcd2- | 
[V:3] z12 | 
[V:4] z4z4D,3E, | 
[V:1] A3BcBGABcd2- | 
[V:2] defecdefg4 | 
[V:3] z12 | 
[V:4] F,G,A,3B,CB,G,A,B,C | 
[V:1] d2c2B2A3GG2- | 
[V:2] f2e2d4cBAG | 
[V:3] z12 | 
[V:4] D2A,2B,2F,4G,2 | 
[V:1] G2^F2G8 ||  
[V:2] A4G8 ||  
[V:3] z12 ||  
[V:4] D,4G,8 ||  
[V:1]  [K:F] [K:clef=treble][M:2/1]G8 | 
[V:2]  [K:F] [K:clef=treble-8][M:2/1]z8 | 
[V:3]  [K:F] [K:clef=treble-8][M:2/1]G8 | 
[V:4]  [K:F] [K:clef=bass][M:2/1]z8 | 
[V:1] B6AG | 
[V:2] z8 | 
[V:3] d8- | 
[V:4] G,8 | 
[V:1] d4G4 | 
[V:2] d8 | 
[V:3] d8 | 
[V:4] B,6A,G, | 
[V:1] z4d4- | 
[V:2] f6ed | 
[V:3] d8 | 
[V:4] D4D,4 | 
[V:1] d4d4 | 
[V:2] a4d4 | 
[V:3] d8 | 
[V:4] z4B,4 | 
[V:1] c4e4- | 
[V:2] g8 | 
[V:3] e8- | 
[V:4] C8- | 
[V:1] e2d2d4- | 
[V:2] a8- | 
[V:3] e8- | 
[V:4] C4D4 | 
[V:1] d4^c4 | 
[V:2] a8 | 
[V:3] e8 | 
[V:4] A,8 | 
[V:1] d6c2 | 
[V:2] f3efga2- | 
[V:3] d8- | 
[V:4] D,8- | 
[V:1] B4A4 | 
[V:2] a2g4^f2 | 
[V:3] d8- | 
[V:4] D,8 | 
[V:1] B4G4 | 
[V:2] g8 | 
[V:3] d8 | 
[V:4] G,8 | 
[V:1] c3BG2A2- | 
[V:2] e2f2g2f2- | 
[V:3] c8 | 
[V:4] A,3G,E,2F,2- | 
[V:1] A2GFE2A2- | 
[V:2] f2edc2f2- | 
[V:3] c8 | 
[V:4] F,E,F,G,A,4 | 
[V:1] A2F4D2 | 
[V:2] f2d2d4 | 
[V:3] d8- | 
[V:4] D,2D4B,2- | 
[V:1] D2d4B2- | 
[V:2] g8 | 
[V:3] d8- | 
[V:4] B,2G,2G,4- | 
[V:1] B2G2G4 | 
[V:2] g4g4 | 
[V:3] d8 | 
[V:4] G,4G,4 | 
[V:1] z2c4BA | 
[V:2] e4c4- | 
[V:3] c4e4- | 
[V:4] C,8 | 
[V:1] G4F4 | 
[V:2] c2B2A4 | 
[V:3] e2d2d4- | 
[V:4] C,4D,4 | 
[V:1] G8 | 
[V:2] G8 | 
[V:3] d4c4 | 
[V:4] _E,8 | 
[V:1] F4B2A2- | 
[V:2] A4B2d2- | 
[V:3] d8- | 
[V:4] D,4B,,2F,2- | 
[V:1] A2G4^F2 | 
[V:2] dcB2A4 | 
[V:3] d8 | 
[V:4] F,2G,2D,4 | 
[V:1] G8 | 
[V:2] G2d3cd2 | 
[V:3] z8 | 
[V:4] G,8 | 
[V:1] z8 | 
[V:2] B2c3Bc2 | 
[V:3] z8 | 
[V:4] z2A,3G,A,2 | 
[V:1] z2d3cd2 | 
[V:2] A2f4f2 | 
[V:3] z8 | 
[V:4] F,2B,3A,B,2 | 
[V:1] B2c3Bc2 | 
[V:2] g2e4e2 | 
[V:3] z8 | 
[V:4] G,2A,3G,A,2 | 
[V:1] A2B3Ac2- | 
[V:2] f2d4_e2- | 
[V:3] z8 | 
[V:4] F,2G,3F,_E,D, | 
[V:1] c2BAG4 | 
[V:2] e2d3Bc2 | 
[V:3] G8 | 
[V:4] C,2D,2_E,4 | 
[V:1] F8 | 
[V:2] F8 | 
[V:3] d8- | 
[V:4] D,8 | 
[V:1] B8 | 
[V:2] f8 | 
[V:3] d8 | 
[V:4] B,,8 | 
[V:1] A8 | 
[V:2] f8 | 
[V:3] d8- | 
[V:4] D,8 | 
[V:1] G8- | 
[V:2] B8 | 
[V:3] d8 | 
[V:4] G,8 | 
[V:1] G8 | 
[V:2] c8 | 
[V:3] e8 | 
[V:4] C,8 | 
[V:1] F8 | 
[V:2] A8 | 
[V:3] d8- | 
[V:4] D,8 | 
[V:1] A4B4 | 
[V:2] z8 | 
[V:3] d8 | 
[V:4] F,4G,4 | 
[V:1] c4A4- | 
[V:2] z8 | 
[V:3] c8 | 
[V:4] A,4F,4 | 
[V:1] A2GFG4 | 
[V:2] z4d4 | 
[V:3] B8 | 
[V:4] G,8 | 
[V:1] A8 | 
[V:2] f6ed | 
[V:3] A8 | 
[V:4] z4D,4 | 
[V:1] z4A4 | 
[V:2] c2f4f2 | 
[V:3] A8 | 
[V:4] F,6E,D, | 
[V:1] c6BA | 
[V:2] e2a4f2 | 
[V:3] z4A4 | 
[V:4] C,2F,6 | 
[V:1] G2A3Gc2- | 
[V:2] g2f3ef2 | 
[V:3] c4c4 | 
[V:4] E,2F,3G,A,2 | 
[V:1] c2=B2c4 | 
[V:2] g4e4 | 
[V:3] d4c4 | 
[V:4] G,4C,4 | 
[V:1] c2A4d2- | 
[V:2] f4c2f2- | 
[V:3] z8 | 
[V:4] F,6D,2- | 
[V:1] d2c2B2c2- | 
[V:2] fga2g2c2- | 
[V:3] z4z2e2- | 
[V:4] D,2F,2G,2A,2- | 
[V:1] c2B2A2B2- | 
[V:2] c2f4f2- | 
[V:3] e2d2c2d2- | 
[V:4] A,2B,2F,2B,2- | 
[V:1] B2A2G2A2- | 
[V:2] f2f2d2e2 | 
[V:3] d2c2B2c2- | 
[V:4] B,2F,2G,2C,2 | 
[V:1] ADG4^F2 | 
[V:2] d2c2d4 | 
[V:3] cBG2A4 | 
[V:4] D,2_E,2D,4 | 
[V:1] G8 ||  
[V:2] d8 ||  
[V:3] G8 ||  
[V:4] G,8 ||  
[V:1]  [K:F] [K:clef=treble][M:2/1]G4G2d2- | 
[V:2]  [K:F] [K:clef=treble-8][M:2/1]z4G4 | 
[V:3]  [K:F] [K:clef=treble-8][M:2/1]z8 | 
[V:4]  [K:F] [K:clef=bass][M:2/1]z8 | 
[V:1] d2cBA2d2 | 
[V:2] G2d4cB | 
[V:3] z8 | 
[V:4] z8 | 
[V:1] c2A3Bc2 | 
[V:2] A2d2c2A2- | 
[V:3] z8 | 
[V:4] z8 | 
[V:1] F2A3Bc2- | 
[V:2] ABc2F2A2- | 
[V:3] z8 | 
[V:4] z8 | 
[V:1] c2BAG2A2 | 
[V:2] ABcde2f2 | 
[V:3] z8 | 
[V:4] z8 | 
[V:1] B6AG | 
[V:2] g4G4 | 
[V:3] z8 | 
[V:4] G,4G,2D2- | 
[V:1] F2G2A2B2 | 
[V:2] z8 | 
[V:3] z8 | 
[V:4] D2CB,A,2D2 | 
[V:1] c3BAGA2- | 
[V:2] z8 | 
[V:3] z8 | 
[V:4] C2A,3B,C2- | 
[V:1] A2G4^F2 | 
[V:2] z8 | 
[V:3] z8 | 
[V:4] CB,A,G,A,4 | 
[V:1] G8 | 
[V:2] d6cB | 
[V:3] z8 | 
[V:4] G,8 | 
[V:1] z8 | 
[V:2] _e2d4g2 | 
[V:3] z8 | 
[V:4] z2G,4F,E, | 
[V:1] z8 | 
[V:2] f2g2e3f | 
[V:3] z8 | 
[V:4] A,2G,4C2 | 
[V:1] z8 | 
[V:2] g2a3gf2 | 
[V:3] z8 | 
[V:4] B,2C2A,2D2- | 
[V:1] z4F4 | 
[V:2] e4d4 | 
[V:3] z8 | 
[V:4] D2^C2D4 | 
[V:1] G4A4- | 
[V:2] z8 | 
[V:3] z8 | 
[V:4] B,2C3B,A,G, | 
[V:1] A4c4 | 
[V:2] z4c4 | 
[V:3] z8 | 
[V:4] F,8 | 
[V:1] A2B3AGF | 
[V:2] d4e4 | 
[V:3] z8 | 
[V:4] z8 | 
[V:1] EDd4B2 | 
[V:2] g4g4 | 
[V:3] z8 | 
[V:4] z8 | 
[V:1] G2A4B2- | 
[V:2] e2f3edc | 
[V:3] z8 | 
[V:4] z8 | 
[V:1] B2AGA4 | 
[V:2] d2g4^f2 | 
[V:3] z8 | 
[V:4] z4D,4 | 
[V:1] G4z4 | 
[V:2] g8 | 
[V:3] z8 | 
[V:4] E,2C,3D,E,2 | 
[V:1] A4B2G2- | 
[V:2] z8 | 
[V:3] z8 | 
[V:4] F,2D,2G,4- | 
[V:1] GAB2c2A2 | 
[V:2] z4A4 | 
[V:3] z8 | 
[V:4] G,4F,4 | 
[V:1] d8 | 
[V:2] B2G3AB2 | 
[V:3] z8 | 
[V:4] G,2B,3A,G,2 | 
[V:1] c4B4- | 
[V:2] c2A2d4- | 
[V:3] z8 | 
[V:4] A,2F,2G,4- | 
[V:1] B2AGA4 | 
[V:2] d4c4 | 
[V:3] z8 | 
[V:4] G,4z4 | 
[V:1] D2G4F2 | 
[V:2] B4G2d2- | 
[V:3] z8 | 
[V:4] z8 | 
[V:1] G2A2B3c | 
[V:2] d2c2d2e2 | 
[V:3] z8 | 
[V:4] z4G,4 | 
[V:1] A8- | 
[V:2] f8 | 
[V:3] z8 | 
[V:4] F,6E,D, | 
[V:1] A8- | 
[V:2] z2f4ed | 
[V:3] z8 | 
[V:4] D,4z2F,2- | 
[V:1] A8 | 
[V:2] c2d2e2A2 | 
[V:3] z8 | 
[V:4] F,2E,D,C,2D,2- | 
[V:1] z8 | 
[V:2] z2f4ed | 
[V:3] z8 | 
[V:4] D,E,F,G,A,4- | 
[V:1] z8 | 
[V:2] c2d3efg | 
[V:3] z8 | 
[V:4] A,2B,4A,G, | 
[V:1] z4A4 | 
[V:2] a2g4^f2 | 
[V:3] z8 | 
[V:4] F,2G,2A,4 | 
[V:1] B6AG | 
[V:2] g8 | 
[V:3] z8 | 
[V:4] G,4z2B,2- | 
[V:1] F2G2A2D2 | 
[V:2] d8 | 
[V:3] z8 | 
[V:4] B,2A,G,F,2G,2- | 
[V:1] z2B4AG | 
[V:2] z4d4 | 
[V:3] z8 | 
[V:4] G,A,B,CD4 | 
[V:1] F2G3ABc | 
[V:2] _e6dc | 
[V:3] z8 | 
[V:4] z8 | 
[V:1] d2c4B2 | 
[V:2] B2c2d4 | 
[V:3] z8 | 
[V:4] z8 | 
[V:1] c2A4GF | 
[V:2] c4z2c2- | 
[V:3] z8 | 
[V:4] z2F,4E,D, | 
[V:1] E2F3GAB | 
[V:2] c2A2d4 | 
[V:3] z8 | 
[V:4] C,2D,3E,F,G, | 
[V:1] c2B4A2- | 
[V:2] c2d2B2c2- | 
[V:3] z8 | 
[V:4] A,2G,4F,2 | 
[V:1] A2G4^F2 | 
[V:2] cBG2A4 | 
[V:3] z8 | 
[V:4] G,4D,4 | 
[V:1] G8- | 
[V:2] G8- | 
[V:3] z8 | 
[V:4] z4G,4 | 
[V:1] G8 ||  
[V:2] G8 ||  
[V:3] z8 ||  
[V:4] G,8 ||  



